svg/music_rest_quarter.svg

<svg xmlns="http://www.w3.org/2000/svg" viewBox="0 0 24 24"><path d="M11.71 16.81c-.8.79-.83 2.03-.07 2.77L10.19 21c-1.53-1.5-1.47-3.97.13-5.54.53-.52 1.18-.85 1.84-1.04L9 11.34l1.45-1.42.37-.35c1-.98 1.03-2.53.08-3.46L9.16 4.42 10.62 3l4.16 4.06c.76.75.72 1.99-.07 2.77l-2.18 2.12L16 15.33l-.39.39c-.5.49-1.23.74-1.89.56-.68-.18-1.46 0-2.01.53"/></svg>

<?xml version="1.0" encoding="UTF-8"?><!DOCTYPE svg PUBLIC "-//W3C//DTD SVG 1.1//EN" "http://www.w3.org/Graphics/SVG/1.1/DTD/svg11.dtd"><svg xmlns="http://www.w3.org/2000/svg" xmlns:xlink="http://www.w3.org/1999/xlink" version="1.1" id="mdi-music-rest-quarter" width="24" height="24" viewBox="0 0 24 24"><path d="M11.71 16.81C10.91 17.6 10.88 18.84 11.64 19.58L10.19 21C8.66 19.5 8.72 17.03 10.32 15.46C10.85 14.94 11.5 14.61 12.16 14.42L9 11.34L10.45 9.92L10.82 9.57C11.82 8.59 11.85 7.04 10.9 6.11L9.16 4.42L10.62 3L14.78 7.06C15.54 7.81 15.5 9.05 14.71 9.83L12.53 11.95L16 15.33L15.61 15.72C15.11 16.21 14.38 16.46 13.72 16.28C13.04 16.1 12.26 16.28 11.71 16.81Z" /></svg>
